packages/ui/public/icons/media-delete-icon.svg

<svg width="25" height="24" viewBox="0 0 25 24" fill="none" xmlns="http://www.w3.org/2000/svg">
    <rect width="24.0389" height="24" rx="12" fill="#FFFEFF" fill-opacity="0.15"/>
    <path fill-rule="evenodd" clip-rule="evenodd" d="M16.7899 9.81321C17.0653 9.83588 17.2706 10.0765 17.2486 10.3519C17.2446 10.3972 16.8833 14.8713 16.6753 16.748C16.5459 17.9127 15.7766 18.6213 14.6152 18.6427C13.7266 18.658 12.8692 18.6667 12.0312 18.6667C11.1278 18.6667 10.2472 18.6567 9.37582 18.6387C8.26113 18.6167 7.48979 17.894 7.36379 16.7526C7.15379 14.8593 6.79445 10.3966 6.79111 10.3519C6.76845 10.0765 6.97378 9.83521 7.24912 9.81321C7.52046 9.80588 7.76579 9.99655 7.78779 10.2712C7.78992 10.3002 7.93682 12.1226 8.09691 13.9257L8.12906 14.2856C8.20969 15.1818 8.29142 16.0431 8.3578 16.6426C8.42914 17.2913 8.77914 17.626 9.39649 17.6387C11.0632 17.674 12.7639 17.676 14.5972 17.6427C15.2532 17.63 15.6079 17.302 15.6812 16.638C15.8879 14.7753 16.2479 10.3166 16.2519 10.2712C16.2739 9.99655 16.5173 9.80454 16.7899 9.81321ZM13.4304 5.33334C14.0424 5.33334 14.5804 5.74602 14.7384 6.33736L14.9078 7.17804C14.9625 7.45362 15.2043 7.65488 15.4844 7.6593L17.6722 7.65938C17.9482 7.65938 18.1722 7.88338 18.1722 8.15939C18.1722 8.43539 17.9482 8.65939 17.6722 8.65939L15.5039 8.65929C15.5005 8.65936 15.4972 8.65939 15.4938 8.65939L15.4775 8.65873L8.56115 8.65931C8.55578 8.65937 8.55039 8.65939 8.54501 8.65939L8.53474 8.65873L6.36671 8.65939C6.0907 8.65939 5.8667 8.43539 5.8667 8.15939C5.8667 7.88338 6.0907 7.65938 6.36671 7.65938L8.55407 7.65871L8.62142 7.65445C8.87228 7.6219 9.08077 7.43137 9.13168 7.17804L9.29368 6.36736C9.45835 5.74602 9.99636 5.33334 10.6084 5.33334H13.4304ZM13.4304 6.33336H10.6084C10.4484 6.33336 10.3077 6.44069 10.267 6.5947L10.1117 7.37471C10.092 7.47351 10.0632 7.56872 10.0264 7.65956H14.0126C13.9757 7.56872 13.9469 7.47351 13.9271 7.37471L13.7651 6.56403C13.7311 6.44069 13.5904 6.33336 13.4304 6.33336Z" fill="white"/>
</svg>

<svg width="25" height="24" fill="none" xmlns="http://www.w3.org/2000/svg"><rect width="24.039" height="24" rx="12" fill="#FFFEFF" fill-opacity=".15"/><path fill-rule="evenodd" clip-rule="evenodd" d="M16.79 9.813a.5.5 0 0 1 .459.539c-.004.045-.366 4.52-.574 6.396-.13 1.165-.898 1.873-2.06 1.895a128.185 128.185 0 0 1-5.24-.004c-1.114-.022-1.885-.745-2.011-1.886-.21-1.894-.57-6.356-.573-6.401a.5.5 0 0 1 .458-.539c.271-.007.517.184.539.458.002.03.149 1.852.309 3.655l.032.36c.08.896.162 1.757.229 2.357.071.648.421.983 1.038.996 1.667.035 3.368.037 5.201.004.656-.013 1.01-.341 1.084-1.005.207-1.863.567-6.321.57-6.367a.51.51 0 0 1 .539-.458Zm-3.36-4.48c.612 0 1.15.413 1.308 1.004l.17.841a.6.6 0 0 0 .576.481h2.188a.5.5 0 0 1 0 1H6.367a.5.5 0 0 1 0-1h2.187l.067-.005a.601.601 0 0 0 .51-.476l.163-.81a1.362 1.362 0 0 1 1.314-1.035h2.822Zm0 1h-2.822c-.16 0-.3.108-.341.262l-.155.78c-.02.099-.049.194-.086.285h3.987a1.583 1.583 0 0 1-.086-.285l-.162-.811c-.034-.123-.175-.23-.335-.23Z" fill="#fff"/></svg>
